Sources/FrostedUI/Resources/Icons.xcassets/ethereum24.imageset/ethereum-24.svg

<svg width="24" height="24" viewBox="0 0 24 24" fill="none" xmlns="http://www.w3.org/2000/svg" data-fui-icon="true">
  <path
    d="M18.3975 12.5967C18.7075 12.4316 19.0907 12.5039 19.3193 12.7705C19.548 13.0375 19.5607 13.4279 19.3496 13.709L12.5996 22.7002C12.458 22.8889 12.2359 23 12 23C11.7641 23 11.542 22.8888 11.4004 22.7002L4.65039 13.709C4.43936 13.4279 4.45202 13.0375 4.68066 12.7705C4.90931 12.5039 5.29249 12.4316 5.60254 12.5967L12 16.0049L18.3975 12.5967ZM12.3525 17.5176C12.1322 17.6348 11.8678 17.6348 11.6475 17.5176L7.87598 15.5078L12 21.001L16.123 15.5078L12.3525 17.5176ZM12 1C12.2307 1.00002 12.4487 1.10643 12.5908 1.28809L19.3408 9.91895L19.3887 9.98926C19.4914 10.1567 19.5257 10.3593 19.4805 10.5527C19.4286 10.7738 19.2789 10.9594 19.0742 11.0576L12.3242 14.2939C12.1192 14.3923 11.8808 14.3923 11.6758 14.2939L4.92578 11.0576C4.72109 10.9594 4.5714 10.7738 4.51953 10.5527C4.4743 10.3593 4.50856 10.1566 4.61133 9.98926L4.65918 9.91895L11.4092 1.28809C11.5513 1.10641 11.7693 1.00001 12 1ZM6.41504 10.1094L12 12.7871L17.584 10.1094L12 2.96777L6.41504 10.1094Z"
    fill="currentColor"
  />
</svg>

<svg xmlns="http://www.w3.org/2000/svg" width="24" height="24" fill="none" data-fui-icon="true" viewBox="0 0 24 24"><path fill="currentColor" d="M18.398 12.597a.75.75 0 0 1 .952 1.112L12.6 22.7a.75.75 0 0 1-1.2 0L4.65 13.71a.75.75 0 0 1 .953-1.112L12 16.005zm-6.046 4.92a.75.75 0 0 1-.704 0l-3.772-2.01L12 21.002l4.123-5.493zM12 1a.75.75 0 0 1 .59.288l6.75 8.63.049.071a.75.75 0 0 1-.315 1.069l-6.75 3.236a.75.75 0 0 1-.648 0l-6.75-3.236a.75.75 0 0 1-.315-1.069l.048-.07 6.75-8.63A.75.75 0 0 1 12 1m-5.585 9.11L12 12.786l5.584-2.678L12 2.968z"/></svg>
